src/actions/24/color-mode-invert-text.svg

<!DOCTYPE svg>
<svg xmlns="http://www.w3.org/2000/svg" version="1.1" viewBox="0 0 24 24" width="24" height="24">
  <defs>
    <style id="current-color-scheme" type="text/css">
            .ColorScheme-Text {
                color:#2e3440;
            }
        </style>
  </defs>
  <g transform="translate(1,1)">
    <path class="ColorScheme-Text" style="fill:currentColor; fill-opacity:1; stroke:none" d="M 11 3 L 11 4 L 12.1797 4 C 13.2954 7.23942 14.4234 10.4748 15.5313 13.7168 C 16.0184 15.1554 16.5754 16.5706 17.0898 18 L 15.3418 18 C 14.8001 16.5208 14.2585 15.0417 13.7168 13.5625 L 11 13.5625 L 11 19 L 19 19 L 19 3 L 11 3 Z M 11 13.5625 L 11 12.2813 L 8.89453 12.2813 C 9.59636 10.2676 10.2982 8.25391 11 6.24023 L 11 4 L 9.91016 4 C 8.78659 7.2696 7.64125 10.5326 6.53125 13.8066 C 6.04314 15.2121 5.50683 16.6009 5 18 L 6.74805 18 C 7.28972 16.5208 7.83138 15.0417 8.37305 13.5625 L 11 13.5625 Z M 11 6.24023 L 11 12.2813 L 13.1953 12.2813 C 12.4785 10.2246 11.7617 8.16797 11.0449 6.11133 C 11.0299 6.1543 11.015 6.19727 11 6.24023 L 11 6.24023 Z"/>
  </g>
</svg>

<!DOCTYPE svg>
<svg width="24" height="24" version="1.1" viewBox="0 0 24 24" xmlns="http://www.w3.org/2000/svg">
 <defs>
  <style type="text/css">.ColorScheme-Text {
                color:#2e3440;
            }</style>
 </defs>
 <g transform="translate(1,1)">
  <path class="ColorScheme-Text" d="m11 3v1h1.1797c1.1157 3.2394 2.2437 6.4748 3.3516 9.7168 0.4871 1.4386 1.0441 2.8538 1.5585 4.2832h-1.748c-0.5417-1.4792-1.0833-2.9583-1.625-4.4375h-2.7168v5.4375h8v-16h-8zm0 10.562v-1.2812h-2.1055c0.70183-2.0137 1.4037-4.0274 2.1055-6.0411v-2.2402h-1.0898c-1.1236 3.2696-2.2689 6.5326-3.3789 9.8066-0.48811 1.4055-1.0244 2.7943-1.5312 4.1934h1.748c0.54167-1.4792 1.0833-2.9583 1.625-4.4375h2.627zm0-7.3223v6.0411h2.1953c-0.7168-2.0567-1.4336-4.1133-2.1504-6.17-0.015 0.04297-0.0299 0.08594-0.0449 0.1289z" fill="currentColor"/>
 </g>
</svg>
